austria/municipalities/31123.svg

<?xml version="1.0" encoding="UTF-8"?>
<!DOCTYPE svg PUBLIC "-//W3C//DTD SVG 1.1//EN" "http://www.w3.org/Graphics/SVG/1.1/DTD/svg11.dtd">
<svg xmlns="http://www.w3.org/2000/svg" version="1.1" width="83px" height="82px" style="shape-rendering:geometricPrecision; text-rendering:geometricPrecision; image-rendering:optimizeQuality; fill-rule:evenodd; clip-rule:evenodd" xmlns:xlink="http://www.w3.org/1999/xlink">
<g><path style="opacity:1" fill="#f8f8f8" d="M -0.5,-0.5 C 27.1667,-0.5 54.8333,-0.5 82.5,-0.5C 82.5,26.8333 82.5,54.1667 82.5,81.5C 54.8333,81.5 27.1667,81.5 -0.5,81.5C -0.5,54.1667 -0.5,26.8333 -0.5,-0.5 Z"/></g>
<g><path style="opacity:1" fill="#541622" d="M 1.5,1.5 C 19.3256,0.503216 37.3256,0.169883 55.5,0.5C 55.5,0.833333 55.5,1.16667 55.5,1.5C 54.8333,1.83333 54.1667,2.16667 53.5,2.5C 36.3414,1.50335 19.008,1.17001 1.5,1.5 Z"/></g>
<g><path style="opacity:1" fill="#f6f5f3" d="M 55.5,1.5 C 62.1667,1.5 68.8333,1.5 75.5,1.5C 75.7559,8.22436 75.4226,14.891 74.5,21.5C 66.6059,27.9406 58.9392,34.6072 51.5,41.5C 50.8333,41.5 50.5,41.1667 50.5,40.5C 50.5,39.1667 49.8333,38.5 48.5,38.5C 47.2983,36.6075 45.965,34.7742 44.5,33C 47.9251,27.2259 52.7584,23.3925 59,21.5C 61.8139,21.4076 64.1473,22.4076 66,24.5C 66.784,14.6172 62.284,10.1172 52.5,11C 46.9513,15.0476 42.2846,19.8809 38.5,25.5C 36.8122,23.1455 34.8122,21.1455 32.5,19.5C 33.9217,19.2914 35.255,18.7914 36.5,18C 42.3623,12.9675 48.029,7.80081 53.5,2.5C 54.1667,2.16667 54.8333,1.83333 55.5,1.5 Z"/></g>
<g><path style="opacity:1" fill="#ca050b" d="M 1.5,1.5 C 19.008,1.17001 36.3414,1.50335 53.5,2.5C 48.029,7.80081 42.3623,12.9675 36.5,18C 35.255,18.7914 33.9217,19.2914 32.5,19.5C 29.5906,14.7578 25.4239,11.7578 20,10.5C 15.7656,11.6969 12.9322,14.3636 11.5,18.5C 10.1997,21.0241 10.1997,23.6908 11.5,26.5C 12.5505,25.1152 13.8839,24.1152 15.5,23.5C 17.0026,24.0522 18.6693,24.0522 20.5,23.5C 22.8816,24.3507 24.8816,25.684 26.5,27.5C 19.2785,32.7038 12.2785,38.3705 5.5,44.5C 4.16667,41.1667 2.83333,37.8333 1.5,34.5C 1.5,23.5 1.5,12.5 1.5,1.5 Z"/></g>
<g><path style="opacity:1" fill="#f4eb1d" d="M 32.5,19.5 C 34.8122,21.1455 36.8122,23.1455 38.5,25.5C 42.2846,19.8809 46.9513,15.0476 52.5,11C 62.284,10.1172 66.784,14.6172 66,24.5C 64.1473,22.4076 61.8139,21.4076 59,21.5C 52.7584,23.3925 47.9251,27.2259 44.5,33C 45.965,34.7742 47.2983,36.6075 48.5,38.5C 46.6597,40.6689 44.3263,42.0023 41.5,42.5C 39.7025,38.8861 37.7025,38.8861 35.5,42.5C 32.9108,41.5806 30.9108,39.914 29.5,37.5C 30.2823,35.5487 31.6156,34.0487 33.5,33C 31.4992,30.6755 29.1658,28.8421 26.5,27.5C 24.8816,25.684 22.8816,24.3507 20.5,23.5C 17.7841,20.8663 14.9508,20.8663 12,23.5C 11.5065,21.8659 11.3398,20.1992 11.5,18.5C 12.9322,14.3636 15.7656,11.6969 20,10.5C 25.4239,11.7578 29.5906,14.7578 32.5,19.5 Z"/></g>
<g><path style="opacity:1" fill="#99360d" d="M 11.5,18.5 C 11.3398,20.1992 11.5065,21.8659 12,23.5C 14.9508,20.8663 17.7841,20.8663 20.5,23.5C 18.6693,24.0522 17.0026,24.0522 15.5,23.5C 13.8839,24.1152 12.5505,25.1152 11.5,26.5C 10.1997,23.6908 10.1997,21.0241 11.5,18.5 Z"/></g>
<g><path style="opacity:1" fill="#646c63" d="M 55.5,1.5 C 55.5,1.16667 55.5,0.833333 55.5,0.5C 62.5,0.5 69.5,0.5 76.5,0.5C 76.8281,12.0123 76.4948,23.3456 75.5,34.5C 75.8182,29.9677 75.4849,25.6344 74.5,21.5C 75.4226,14.891 75.7559,8.22436 75.5,1.5C 68.8333,1.5 62.1667,1.5 55.5,1.5 Z"/></g>
<g><path style="opacity:1" fill="#81726e" d="M 1.5,34.5 C 2.83333,37.8333 4.16667,41.1667 5.5,44.5C 5.5,45.5 5.5,46.5 5.5,47.5C 3.1022,43.597 1.76887,39.2637 1.5,34.5 Z"/></g>
<g><path style="opacity:1" fill="#968e22" d="M 29.5,37.5 C 30.9108,39.914 32.9108,41.5806 35.5,42.5C 35.1898,44.1436 34.1898,45.1436 32.5,45.5C 31.578,43.1837 29.9113,41.517 27.5,40.5C 27.427,38.9731 28.0937,37.9731 29.5,37.5 Z"/></g>
<g><path style="opacity:1" fill="#85802f" d="M 48.5,38.5 C 49.8333,38.5 50.5,39.1667 50.5,40.5C 47.845,41.497 45.845,43.1637 44.5,45.5C 43.5,45.5 42.5,45.5 41.5,45.5C 41.5,44.5 41.5,43.5 41.5,42.5C 44.3263,42.0023 46.6597,40.6689 48.5,38.5 Z"/></g>
<g><path style="opacity:1" fill="#f3eb1b" d="M 50.5,40.5 C 50.5,41.1667 50.8333,41.5 51.5,41.5C 54.1667,44.8333 56.8333,48.1667 59.5,51.5C 58.1092,53.8903 56.1092,55.5569 53.5,56.5C 51.8675,51.878 48.8675,48.5447 44.5,46.5C 44.5,46.1667 44.5,45.8333 44.5,45.5C 45.845,43.1637 47.845,41.497 50.5,40.5 Z"/></g>
<g><path style="opacity:1" fill="#efeeec" d="M 26.5,27.5 C 29.1658,28.8421 31.4992,30.6755 33.5,33C 31.6156,34.0487 30.2823,35.5487 29.5,37.5C 28.0937,37.9731 27.427,38.9731 27.5,40.5C 24.5285,43.8076 21.5285,47.141 18.5,50.5C 16.9153,51.0024 16.4153,52.0024 17,53.5C 19.2568,55.0456 21.4235,56.7123 23.5,58.5C 24.2975,58.0431 24.6309,57.3764 24.5,56.5C 26.4002,52.2679 29.0669,48.6012 32.5,45.5C 34.1898,45.1436 35.1898,44.1436 35.5,42.5C 37.7025,38.8861 39.7025,38.8861 41.5,42.5C 41.5,43.5 41.5,44.5 41.5,45.5C 42.5,45.5 43.5,45.5 44.5,45.5C 44.5,45.8333 44.5,46.1667 44.5,46.5C 36.7999,54.2019 28.7999,61.5352 20.5,68.5C 19.1667,67.8333 18.1667,66.8333 17.5,65.5C 15.5419,62.2085 13.2085,59.2085 10.5,56.5C 9.5041,56.4142 8.67076,56.7476 8,57.5C 8.13295,54.0446 7.29962,50.7113 5.5,47.5C 5.5,46.5 5.5,45.5 5.5,44.5C 12.2785,38.3705 19.2785,32.7038 26.5,27.5 Z"/></g>
<g><path style="opacity:1" fill="#f4ec1e" d="M 27.5,40.5 C 29.9113,41.517 31.578,43.1837 32.5,45.5C 29.0669,48.6012 26.4002,52.2679 24.5,56.5C 21.5622,55.378 19.5622,53.378 18.5,50.5C 21.5285,47.141 24.5285,43.8076 27.5,40.5 Z"/></g>
<g><path style="opacity:1" fill="#92862d" d="M 18.5,50.5 C 19.5622,53.378 21.5622,55.378 24.5,56.5C 24.6309,57.3764 24.2975,58.0431 23.5,58.5C 21.4235,56.7123 19.2568,55.0456 17,53.5C 16.4153,52.0024 16.9153,51.0024 18.5,50.5 Z"/></g>
<g><path style="opacity:1" fill="#c9050c" d="M 74.5,21.5 C 75.4849,25.6344 75.8182,29.9677 75.5,34.5C 71.9613,56.3861 59.628,71.0527 38.5,78.5C 37.4163,78.315 36.4163,77.9817 35.5,77.5C 35.0269,76.0937 34.0269,75.427 32.5,75.5C 27.9983,73.9921 23.9983,71.6588 20.5,68.5C 28.7999,61.5352 36.7999,54.2019 44.5,46.5C 48.8675,48.5447 51.8675,51.878 53.5,56.5C 53.56,57.0431 53.8933,57.3764 54.5,57.5C 57.1117,56.2213 59.4451,54.5547 61.5,52.5C 61.0431,51.7025 60.3764,51.3691 59.5,51.5C 56.8333,48.1667 54.1667,44.8333 51.5,41.5C 58.9392,34.6072 66.6059,27.9406 74.5,21.5 Z"/></g>
<g><path style="opacity:1" fill="#8b841e" d="M 59.5,51.5 C 60.3764,51.3691 61.0431,51.7025 61.5,52.5C 59.4451,54.5547 57.1117,56.2213 54.5,57.5C 53.8933,57.3764 53.56,57.0431 53.5,56.5C 56.1092,55.5569 58.1092,53.8903 59.5,51.5 Z"/></g>
<g><path style="opacity:1" fill="#7c847f" d="M 10.5,56.5 C 13.2085,59.2085 15.5419,62.2085 17.5,65.5C 14.027,63.3633 11.6936,60.3633 10.5,56.5 Z"/></g>
<g><path style="opacity:1" fill="#5a2b29" d="M 32.5,75.5 C 34.0269,75.427 35.0269,76.0937 35.5,77.5C 33.9731,77.573 32.9731,76.9063 32.5,75.5 Z"/></g>
</svg>

<svg xmlns="http://www.w3.org/2000/svg" width="83" height="82" style="shape-rendering:geometricPrecision;text-rendering:geometricPrecision;image-rendering:optimizeQuality;fill-rule:evenodd;clip-rule:evenodd"><path style="opacity:1" fill="#f8f8f8" d="M-.5-.5h83v82h-83v-82z"/><path style="opacity:1" fill="#541622" d="M1.5 1.5a729.595 729.595 0 0 1 54-1v1l-2 1a676.597 676.597 0 0 0-52-1z"/><path style="opacity:1" fill="#f6f5f3" d="M55.5 1.5h20a113.23 113.23 0 0 1-1 20 484.179 484.179 0 0 0-23 20c-.667 0-1-.333-1-1 0-1.333-.667-2-2-2a54.619 54.619 0 0 0-4-5.5c3.425-5.774 8.258-9.608 14.5-11.5 2.814-.092 5.147.908 7 3 .784-9.883-3.716-14.383-13.5-13.5-5.549 4.048-10.215 8.88-14 14.5a25.63 25.63 0 0 0-6-6 10.123 10.123 0 0 0 4-1.5 382.011 382.011 0 0 0 17-15.5l2-1z"/><path style="opacity:1" fill="#ca050b" d="M1.5 1.5c17.508-.33 34.841.003 52 1a382.011 382.011 0 0 1-17 15.5 10.123 10.123 0 0 1-4 1.5c-2.91-4.742-7.076-7.742-12.5-9-4.234 1.197-7.068 3.864-8.5 8-1.3 2.524-1.3 5.19 0 8a8.905 8.905 0 0 1 4-3c1.503.552 3.17.552 5 0 2.382.85 4.382 2.184 6 4a243.941 243.941 0 0 0-21 17l-4-10v-33z"/><path style="opacity:1" fill="#f4eb1d" d="M32.5 19.5a25.63 25.63 0 0 1 6 6c3.785-5.62 8.451-10.452 14-14.5 9.784-.883 14.284 3.617 13.5 13.5-1.853-2.092-4.186-3.092-7-3-6.242 1.892-11.075 5.726-14.5 11.5a54.619 54.619 0 0 1 4 5.5c-1.84 2.169-4.174 3.502-7 4-1.797-3.614-3.797-3.614-6 0-2.59-.92-4.59-2.586-6-5 .782-1.951 2.116-3.451 4-4.5-2-2.325-4.334-4.158-7-5.5-1.618-1.816-3.618-3.15-6-4-2.716-2.634-5.55-2.634-8.5 0-.493-1.634-.66-3.3-.5-5 1.432-4.136 4.266-6.803 8.5-8 5.424 1.258 9.59 4.258 12.5 9z"/><path style="opacity:1" fill="#99360d" d="M11.5 18.5c-.16 1.7.007 3.366.5 5 2.95-2.634 5.784-2.634 8.5 0-1.83.552-3.497.552-5 0a8.905 8.905 0 0 0-4 3c-1.3-2.81-1.3-5.476 0-8z"/><path style="opacity:1" fill="#646c63" d="M55.5 1.5v-1h21c.328 11.512-.005 22.846-1 34 .318-4.532-.015-8.866-1-13a113.23 113.23 0 0 0 1-20h-20z"/><path style="opacity:1" fill="#81726e" d="m1.5 34.5 4 10v3c-2.398-3.903-3.731-8.236-4-13z"/><path style="opacity:1" fill="#968e22" d="M29.5 37.5c1.41 2.414 3.41 4.08 6 5-.31 1.644-1.31 2.644-3 3-.922-2.316-2.589-3.983-5-5-.073-1.527.594-2.527 2-3z"/><path style="opacity:1" fill="#85802f" d="M48.5 38.5c1.333 0 2 .667 2 2-2.655.997-4.655 2.664-6 5h-3v-3c2.826-.498 5.16-1.831 7-4z"/><path style="opacity:1" fill="#f3eb1b" d="M50.5 40.5c0 .667.333 1 1 1l8 10c-1.39 2.39-3.39 4.057-6 5-1.633-4.622-4.633-7.955-9-10v-1c1.345-2.336 3.345-4.003 6-5z"/><path style="opacity:1" fill="#efeeec" d="M26.5 27.5c2.666 1.342 5 3.175 7 5.5-1.884 1.049-3.218 2.549-4 4.5-1.406.473-2.073 1.473-2 3a7557.611 7557.611 0 0 1-9 10c-1.585.502-2.085 1.502-1.5 3a74.327 74.327 0 0 1 6.5 5c.797-.457 1.13-1.124 1-2a32.73 32.73 0 0 1 8-11c1.69-.356 2.69-1.356 3-3 2.203-3.614 4.203-3.614 6 0v3h3v1a372.634 372.634 0 0 1-24 22 6.541 6.541 0 0 1-3-3 45.78 45.78 0 0 0-7-9c-.996-.086-1.83.248-2.5 1 .133-3.455-.7-6.789-2.5-10v-3a243.941 243.941 0 0 1 21-17z"/><path style="opacity:1" fill="#f4ec1e" d="M27.5 40.5c2.411 1.017 4.078 2.684 5 5a32.73 32.73 0 0 0-8 11c-2.938-1.122-4.938-3.122-6-6 3.029-3.359 6.029-6.692 9-10z"/><path style="opacity:1" fill="#92862d" d="M18.5 50.5c1.062 2.878 3.062 4.878 6 6 .13.876-.203 1.543-1 2a74.327 74.327 0 0 0-6.5-5c-.585-1.498-.085-2.498 1.5-3z"/><path style="opacity:1" fill="#c9050c" d="M74.5 21.5c.985 4.134 1.318 8.468 1 13-3.539 21.886-15.872 36.553-37 44a10.028 10.028 0 0 1-3-1c-.473-1.406-1.473-2.073-3-2a33.668 33.668 0 0 1-12-7c8.3-6.965 16.3-14.298 24-22 4.367 2.045 7.367 5.378 9 10 .06.543.393.876 1 1a26.006 26.006 0 0 0 7-5c-.457-.797-1.124-1.13-2-1l-8-10a484.179 484.179 0 0 1 23-20z"/><path style="opacity:1" fill="#8b841e" d="M59.5 51.5c.876-.13 1.543.203 2 1a26.006 26.006 0 0 1-7 5c-.607-.124-.94-.457-1-1 2.61-.943 4.61-2.61 6-5z"/><path style="opacity:1" fill="#7c847f" d="M10.5 56.5a45.78 45.78 0 0 1 7 9c-3.473-2.137-5.806-5.137-7-9z"/><path style="opacity:1" fill="#5a2b29" d="M32.5 75.5c1.527-.073 2.527.594 3 2-1.527.073-2.527-.594-3-2z"/></svg>
